X:1
T:Ne laeteris inimica mea
T:Damião de Gois (1502-1574)
T:Ne laeteris inimica mea
T:3 part motet
C:Damião de Gois (1502-1574)
%%score [ ( 1 2 ) 3 4 ]
L:1/8
M:2/2
K:F
V:1 alto1 nm="P1"
V:2 alto1 
V:3 alto transpose=-12 nm="P2"
V:4 tenor transpose=-12 nm="P3"
V:1
 A16 |[M:2/2][K:treble] z8 | z8 | z4 A4- | A4 D3 E | FG A4 G2 | B4 A4- | A8- | A4 z4 | z4 z2 E2 | %10
w: |||Ne|_ lae- *||te- *||ris|in-|
 F6 F2 | D3 E FEFG | A2 B4 AG | F8 | z4 z2 F2 | G6 G2 | E2 F2 C4 | z8 | z2 A2 B4- | B2 B2 c3 B | %20
w: i- mi-|ca me _ _ _ _|_ _ _ _|a,|in-|i- mi-|ca me- a,||in- i-|* mi- ca, in-|
 A3 G A2 B2- | B2 AG F4- | F4 z2 A2 | B2 d4 ^c2 | d3 c B2 A2- | A2 G2 A4 | z4 A4- | A4 A4 | %28
w: i- mi- ca me-|* * * a,|_ su-|per me, su-|per me, su- *|* per me,|su-|* per|
 c3 B G2 d2- | d2 c2 d4 | A4 z4 | z2 d4 c2 | B2 G2 B4 | A4 z2 D2 | G2 F3 E/D/ E2 | D4 z2 d2- | %36
w: me, _ su- *|* * per|me,|qui- a|ce- ci- di,|_ qui-|a ce- * * ci-|di, qui-|
 d2 c2 B2 A2 | G3 F E2 D2- | DC G4 G2 | F2 D2 FEFG | A2 D2 FGAF | B2 A4 G2 | A8- | A8 | z2 A4 G2 | %45
w: * a ce- ci-||* di, qui- a|ce- ci- * * * *|||di,|_|con- sur-|
 c3 B A2 G2- | G2 F4 E2 | F4 z2 A2- | A2 G2 c3 B | AG F3 E E2- | E2 D4 C2 | D4 z4 | z4 z2 A2- | %53
w: gam _ _ cum|_ se- de-|ro, con-|* sur- gam _|_ _ _ _ cum|_ se- de-|ro|in|
 A2 G2 A3 G | F2 E4 D2 | F2 E3 D D2- | D2 C2 D4 | z4 d4- | d2 c2 B2 A2 | G2 F3 E/D/ E2 | %60
w: _ te- * ne-|bris, in te-||* ne- bris|Do-|* * * mi-|nus _ lux _ _|
 D2 F2 G2 A2- | AG/F/ G2 A2 A2- | A2 G2 F2 E2 | D4 B3 A | GF F4 E2 | F8 | d6 c2 | B2 A2 G2 F2 | %68
w: me- a est, Do-||* * * mi-|nus lux _|_ _ me- a|est,|Do- *|* * * mi-|
 B2 A3 G G2- | G2 FE F2 B,C | DCDE FG A2 | B3 A G2 F2 | B2 A4 G2- |[M:8/4] G2 ^FE x8- x4 |] %74
w: nus _ lux me-||* * * * a _ est,|Do- * * mi-|nus lux me-|* a _ est.|
V:2
 x16 |[M:2/2][K:treble] x8 | x8 | x8 | x8 | x8 | x8 | x8 | x8 | x8 | x8 | x8 | x8 | x8 | x8 | x8 | %16
 x8 | x8 | x8 | x8 | x8 | x8 | x8 | x8 | x8 | x8 | x8 | x8 | x8 | x8 | x8 | x8 | x8 | x8 | x8 | %35
 x8 | x8 | x8 | x8 | x8 | x8 | x8 | x8 | x8 | x8 | x8 | x8 | x8 | x8 | x8 | x8 | x8 | x8 | x8 | %54
 x8 | x8 | x8 | x8 | x8 | x8 | x8 | x8 | x8 | x8 | x8 | x8 | x8 | x8 | x8 | x8 | x8 | x8 | x8 | %73
[M:8/4] x4 ^F8 x4 |] %74
V:3
 A,16 |[M:2/2][K:treble-8] A8 | B4 c2 d2- | d2 cB c4 | d4 z4 | z2 d4 d2 | GABc de f2- | %7
w: |Ne|lae- * *|* * * te-|ris,|ne lae-||
 f2 e2 f3 e | d2 c2 f2 e2- | ed d4 ^c2 | d8 | z2 A2 d4- | d2 d2 B2 c2 | d3 e f2 B2 | d6 d2 | %15
w: |* te- ris, ne|_ _ lae- te-|ris|in- i-|* mi- ca me-|* a, _ in-|i- mi-|
 B2 c2 G4 | z4 z2 c2 | d6 d2 | B2 c2 G2 g2 | g2 g2 e2 f2 | c2 f3 e d2- | d2 ^c2 d2 A2 | B2 d4 c2 | %23
w: ca me- a,|in-|i- mi-|* ca me- a,|in- i- mi- ca|me- * * *|* * a, su-|per me, su-|
 defd e4 | d4 z4 | z4 z2 ^c2 | d2 f3 efd | e4 d2 f2- | fe e4 d2 | e4 z2 d2- | d2 c2 B2 G2 | %31
w: * * * * per|me,|su-|per _ me, _ su-|* per me|_ _ su- per|me, qui-|* a ce- ci-|
 B4 A3 F | G2 _e2 d2 B2 | f3 e dcBA | G2 d4 c2 | B2 G2 B4 | A4 z4 | z2 c4 B2 | G3 A B2 c2 | %39
w: di, ce- ci-|* * * di,|qui- a _ ce- * ci-|||di,|qui- a|ce- ci- * *|
 d2 fe dc d2- | d2 cB A2 F2 | G2 A2 B4 | A4 z2 f2- | f2 e2 a3 g | f2 e4 d2 | e2 A2 c2 BA | %46
w: |||di, con-|* sur- gam _|_ _ cum|se- * * * *|
 B2 A2 G4 | F8 | z8 | z2 d4 c2 | f3 e dc e2- | ed d4 c2 | d3 c B2 A2 | B4 A2 FG | AB c4 B2 | %55
w: * * de-|ro,||con- sur-|gam, _ _ _ _|_ _ con- sur-|gam _ _ cum|se- * * *||
 A4 G2 d2 | e2 f3 edc | BA G2 B2 c2 | d8 | z2 d4 c2 | B2 A2 G2 F2 | B4 A4 | d6 c2 | B2 A2 G2 _e2- | %64
w: de- ro in|te- * * * *|* * * * ne-|bris|Do- mi-|nus lux _ me-|a est,|Do- mi-|nus _ _ lux|
 ed d4 ^c2 | d8- | d8- | d8- | d8- | d8- | d8- | d8- | d8- |[M:8/4] d16 |] %74
w: _ _ me- a|e-||||||||st.|
V:4
 A,16 |[M:2/2][K:treble-8] A8 | G4 F4 | (B4 A4) | z2 D3 EFG | A2 F2 B3 c | d8 | z2 A2 D3 E | %8
w: |Ne|lae- te-|ris, _|ne lae- * *|* * * te-|ris,|ne lae- *|
 FG A4 G2 | B4 A4 | D8- | D8 | z4 z2 A2 | B6 B2 | F2 G2 D4 | z4 z2 G2 | A6 A2 | F2 G2 D2 G2- | %18
w: |* te-|ris|_|in-|i- mi-|ca me- a,|in-|i- mi-|ca me- * *|
 G2 ^F2 G4 | z2 G2 A4- | A2 A2 F2 G2 | E4 D4- | D4 z4 | z4 z2 A2 | B2 d4 c2 | d2 B2 A4 | %26
w: * * a,|in- i-|* mi- ca me-|* a,|_|su-|per me, `su-|* * per|
 D4 z2 d2- | d2 c2 d4 | A4 z2 B2- | B2 A2 G2 D2 | FGAF G2 E2 | D4 z2 A2 | B2 c2 G2 d2- | %33
w: me, su-|* * per|me, qui-|* a ce- ci-||di, qui-|a ce- ci- *|
 d2 c2 B2 G2 | B4 A4 | z4 G4 | F4 D2 F2 | E2 C4 D2 | _E8 | D8- | D8 | z4 z2 d2- | d2 c2 f3 e | %43
w: |* di,|qui-|a ce- ci-|||di,|_|con-|* sur- gam _|
 d2 c3 B A2 | B2 c2 B4 | A3 G F2 E2 | D4 z2 B2- | B2 A2 d3 c | AB c3 BAG | FE D2 A3 A | D4 z4 | %51
w: _ _ _ _|* cum se-|* * * de-|ro con-|* sur- gam _|_ _ _ _ _ _|* * cum se- de-|ro,|
 z2 B4 A2 | B2 G4 F2 | G3 G D4 | z2 C2 G3 F | D2 A2 B4 | A4 D4 | d6 c2 | B2 A2 G2 F2 | B4 A4 | %60
w: con- sur-|gam _ cum|se- de- ro|in te- *||ne- bris|Do- mi-|nus lux _ me-|a est,|
 z2 D2 E2 F2 | G4 D4- | D4 d4- | d2 c2 B2 G2 | B4 A4 | D4 d4- | d2 c2 B2 A2 | G2 F2 B3 A | %68
w: lux me- a|_ est,|_ Do-|* mi- nus lux|me- a|est, Do-|* mi- nus lux|_ _ _ _|
 G2 F2 G4 | D4 z2 G2- | %70
w: * me- a|est, Do-|
"^Source is \"History of the Science and Practice of Music\" by Sir John Hawkins. Page 326 in the 1853 edition.The ultimate source is Glarean's \"Dodecachordon\".The value of notes has been halved." G2 G2 F4 | %71
w: * mi- nus|
 G4 B3 A | G2 F2 G4 |[M:8/4] D16 |] %74
w: lux _ _|me- a _|est.|

